src/assets/icons/pul-icon-web.svg

<!-- Generated by IcoMoon.io -->
<svg version="1.1" xmlns="http://www.w3.org/2000/svg" width="16" height="16" viewBox="0 0 16 16">
<title>web</title>
<path d="M8.003 0c-0.117 0-0.233 0.002-0.347 0.007-4.365 0.176-7.657 3.541-7.657 7.826 0 4.503 3.579 8.167 7.979 8.167 4.423 0 8.021-3.601 8.021-8.029 0-4.395-3.587-7.971-7.997-7.971zM0.674 7.986h3.697c0.036 1.098 0.24 2.213 0.61 3.333h-3.471c-0.515-1-0.812-2.133-0.836-3.333zM4.368 7.319h-3.677c0.084-1.23 0.465-2.363 1.083-3.333h3.243c-0.399 1.075-0.615 2.191-0.649 3.333zM5.703 3.986h4.6c0.435 1.073 0.663 2.19 0.699 3.333h-5.998c0.036-1.143 0.263-2.261 0.699-3.333zM5.006 7.986h5.994c-0.039 1.095-0.256 2.209-0.656 3.333h-4.683c-0.399-1.124-0.616-2.239-0.655-3.333zM11.635 7.986h3.697c-0.003 1.201-0.298 2.332-0.812 3.333h-3.496c0.371-1.12 0.574-2.236 0.611-3.333zM11.638 7.319c-0.033-1.141-0.249-2.258-0.649-3.333h3.149c0.641 0.975 1.053 2.111 1.162 3.333h-3.662zM13.649 3.319h-2.934c-0.399-0.889-0.926-1.744-1.584-2.557 1.807 0.28 3.401 1.212 4.518 2.557zM8.185 0.677c0.757 0.838 1.359 1.723 1.811 2.643h-3.985c0.454-0.921 1.057-1.808 1.816-2.648 0.059-0.002 0.117-0.005 0.177-0.005 0.061 0 0.121 0.008 0.181 0.010zM6.887 0.749c-0.664 0.817-1.194 1.677-1.596 2.571h-3.039c1.113-1.364 2.739-2.302 4.635-2.571zM1.895 11.986h3.323c0.427 1.095 1.015 2.189 1.762 3.269-2.117-0.299-3.949-1.523-5.085-3.269zM7.843 15.327c-0.818-1.11-1.453-2.227-1.919-3.341h4.159c-0.465 1.113-1.1 2.229-1.917 3.339-0.063 0.001-0.123 0.009-0.186 0.009-0.047 0-0.091-0.006-0.136-0.007zM9.029 15.25c0.744-1.079 1.332-2.17 1.758-3.264h3.349c-1.132 1.733-2.972 2.956-5.107 3.264z"></path>
</svg>

<svg xmlns="http://www.w3.org/2000/svg" viewBox="0 0 16 16">
    <path d="M8.003 0c-.117 0-.233.002-.347.007C3.291.183-.001 3.548-.001 7.833-.001 12.336 3.578 16 7.978 16c4.423 0 8.021-3.601 8.021-8.029C15.999 3.576 12.412 0 8.002 0zM.674 7.986h3.697c.036 1.098.24 2.213.61 3.333H1.51a7.595 7.595 0 0 1-.836-3.333zm3.694-.667H.691a7.068 7.068 0 0 1 1.083-3.333h3.243a10.427 10.427 0 0 0-.649 3.333zm1.335-3.333h4.6a9.624 9.624 0 0 1 .699 3.333H5.004a9.596 9.596 0 0 1 .699-3.333zm-.697 4H11a11.094 11.094 0 0 1-.656 3.333H5.661a11.129 11.129 0 0 1-.655-3.333zm6.629 0h3.697a7.313 7.313 0 0 1-.812 3.333h-3.496c.371-1.12.574-2.236.611-3.333zm.003-.667a10.378 10.378 0 0 0-.649-3.333h3.149A7.224 7.224 0 0 1 15.3 7.319h-3.662zm2.011-4h-2.934A11.635 11.635 0 0 0 9.131.762a7.329 7.329 0 0 1 4.518 2.557zM8.185.677A11.533 11.533 0 0 1 9.996 3.32H6.011A11.606 11.606 0 0 1 7.827.672c.059-.002.117-.005.177-.005.061 0 .121.008.181.01zM6.887.749A11.643 11.643 0 0 0 5.291 3.32H2.252C3.365 1.956 4.991 1.018 6.887.749zM1.895 11.986h3.323a15.96 15.96 0 0 0 1.762 3.269c-2.117-.299-3.949-1.523-5.085-3.269zm5.948 3.341a16.146 16.146 0 0 1-1.919-3.341h4.159a16.147 16.147 0 0 1-1.917 3.339c-.063.001-.123.009-.186.009-.047 0-.091-.006-.136-.007zm1.186-.077a16 16 0 0 0 1.758-3.264h3.349a7.36 7.36 0 0 1-5.107 3.264z"/>
</svg>
